X:1
T:[ID 2-38a]
T:[ID 2-38a]
T:Bezeichnung standardisiert: Menuett Menuet 3.
T:Urheber unbekannt Datum in der hier transkribierten schriftlichen Quelle: 1767
C:Urheber unbekannt
C:Datum in der hier transkribierten schriftlichen Quelle: 1767
L:1/8
M:3/4
K:C
V:1 treble 
V:1
 ce g2 g2 | g4 a2 | gfedcB | c2 C4 | ce g2 g2 | Bd g2 g2 | cedcBA | G6 :: GB d2 d2 | Bd f4 | %10
 GB d2 d2 | Af a4 | gfedcd | BA G2 f2 | (3edc G2 B2 | c6 :| %16

